styles/3/Numix/128x128/actions/default-document-open-recent.svg

<?xml version="1.0" encoding="UTF-8" standalone="no"?>
<svg
   xmlns:dc="http://purl.org/dc/elements/1.1/"
   xmlns:cc="http://creativecommons.org/ns#"
   xmlns:rdf="http://www.w3.org/1999/02/22-rdf-syntax-ns#"
   xmlns:svg="http://www.w3.org/2000/svg"
   xmlns="http://www.w3.org/2000/svg"
   xmlns:sodipodi="http://sodipodi.sourceforge.net/DTD/sodipodi-0.dtd"
   xmlns:inkscape="http://www.inkscape.org/namespaces/inkscape"
   width="128px"
   height="128px"
   viewBox="0 0 128 128"
   version="1.1"
   id="svg3041"
   inkscape:version="0.48.5 r10040"
   sodipodi:docname="document-open-recent.svg">
  <metadata
     id="metadata3068">
    <rdf:RDF>
      <cc:Work
         rdf:about="">
        <dc:format>image/svg+xml</dc:format>
        <dc:type
           rdf:resource="http://purl.org/dc/dcmitype/StillImage" />
      </cc:Work>
    </rdf:RDF>
  </metadata>
  <defs
     id="defs3066" />
  <sodipodi:namedview
     pagecolor="#ffffff"
     bordercolor="#666666"
     borderopacity="1"
     objecttolerance="10"
     gridtolerance="10"
     guidetolerance="10"
     inkscape:pageopacity="0"
     inkscape:pageshadow="2"
     inkscape:window-width="668"
     inkscape:window-height="480"
     id="namedview3064"
     showgrid="false"
     inkscape:zoom="1.84375"
     inkscape:cx="60.20339"
     inkscape:cy="64"
     inkscape:window-x="0"
     inkscape:window-y="0"
     inkscape:window-maximized="0"
     inkscape:current-layer="svg3041" />
  <path
     inkscape:connector-curvature="0"
     id="path3044"
     d="m 12,24 104,0 0,40 -104,0 z m 0,0"
     style="fill:#ea9036;fill-opacity:1;fill-rule:nonzero;stroke:none" />
  <path
     inkscape:connector-curvature="0"
     id="path3046"
     d="m 24,24 c 0,-4 0,-8 5.816406,-8 l 20.367188,0 C 56,16 56,20 56,24 l 0,4 -32,0 z m 0,0"
     style="fill:#ea9036;fill-opacity:1;fill-rule:nonzero;stroke:none" />
  <path
     inkscape:connector-curvature="0"
     id="path3048"
     d="m 20,32 88,0 0,32 -88,0 z m 0,0"
     style="fill:#94979e;fill-opacity:1;fill-rule:nonzero;stroke:none" />
  <path
     inkscape:connector-curvature="0"
     id="path3050"
     d="m 28,28 76,0 0,52 -76,0 z m 0,0"
     style="fill:#d7d7d9;fill-opacity:1;fill-rule:nonzero;stroke:none" />
  <path
     inkscape:connector-curvature="0"
     id="path3052"
     d="m 24,36 76,0 0,52 -76,0 z m 0,0"
     style="fill:#f8f8f8;fill-opacity:1;fill-rule:nonzero;stroke:none" />
  <path
     inkscape:connector-curvature="0"
     id="path3054"
     d="m 28,40 68,0 0,4 -68,0 z m 0,0"
     style="fill:#cccccc;fill-opacity:1;fill-rule:nonzero;stroke:none" />
  <path
     inkscape:connector-curvature="0"
     id="path3056"
     d="m 4,56 120,0 -8.57031,56 -102.859378,0 z m 0,0"
     style="fill:#f2bb64;fill-opacity:1;fill-rule:nonzero;stroke:none" />
  <path
     inkscape:connector-curvature="0"
     id="path3058"
     d="m 28,48 68,0 0,4 -68,0 z m 0,0"
     style="fill:#cccccc;fill-opacity:1;fill-rule:nonzero;stroke:none" />
  <path
     inkscape:connector-curvature="0"
     id="path3060"
     d="m 116.05859,91.589844 c 0.1875,9.324216 -4.73046,18.019536 -12.86718,22.738286 -8.125004,4.71875 -18.195316,4.71875 -26.332035,0 -8.136719,-4.71875 -13.050781,-13.41407 -12.855469,-22.738286 -0.195312,-9.332032 4.71875,-18.03125 12.855469,-22.75 8.136719,-4.71875 18.207031,-4.71875 26.332035,0 8.13672,4.71875 13.05468,13.417968 12.86718,22.75 z m 0,0"
     style="fill:#859900;fill-opacity:1;fill-rule:evenodd;stroke:none" />
  <path
     inkscape:connector-curvature="0"
     id="path3062"
     d="m 104.26563,75.058594 c -0.55079,0.199218 -1.01954,0.574218 -1.33204,1.0625 l -14.187496,13.863281 -8.855469,-8.53125 c -0.355469,-1.175781 -1.46875,-1.96875 -2.707031,-1.90625 -1.230469,0.07422 -2.25,0.980469 -2.480469,2.1875 -0.21875,1.21875 0.425781,2.429687 1.5625,2.917969 l 10.667969,10.667968 c 1.019531,0.957032 2.601562,0.957032 3.625,0 l 15.999996,-16 c 0.625,-0.824218 0.70704,-1.949218 0.21875,-2.867187 -0.49218,-0.914063 -1.48046,-1.457031 -2.51171,-1.394531 z m 0,0"
     style="fill:#ffffff;fill-opacity:1;fill-rule:nonzero;stroke:none" />
</svg>

<svg xmlns="http://www.w3.org/2000/svg" xmlns:xlink="http://www.w3.org/1999/xlink" width="128px" height="128px" viewBox="0 0 128 128" version="1.1">
<g id="surface1">
<path style=" stroke:none;fill-rule:nonzero;fill:rgb(91.764706%,56.470588%,21.176471%);fill-opacity:1;" d="M 12 24 L 116 24 L 116 64 L 12 64 Z M 12 24 "/>
<path style=" stroke:none;fill-rule:nonzero;fill:rgb(91.764706%,56.470588%,21.176471%);fill-opacity:1;" d="M 24 24 C 24 20 24 16 29.816406 16 L 50.183594 16 C 56 16 56 20 56 24 L 56 28 L 24 28 Z M 24 24 "/>
<path style=" stroke:none;fill-rule:nonzero;fill:rgb(58.431373%,59.607843%,62.352941%);fill-opacity:1;" d="M 20 32 L 108 32 L 108 64 L 20 64 Z M 20 32 "/>
<path style=" stroke:none;fill-rule:nonzero;fill:rgb(84.705882%,84.705882%,85.490196%);fill-opacity:1;" d="M 28 28 L 104 28 L 104 80 L 28 80 Z M 28 28 "/>
<path style=" stroke:none;fill-rule:nonzero;fill:rgb(97.647059%,97.647059%,97.647059%);fill-opacity:1;" d="M 24 36 L 100 36 L 100 88 L 24 88 Z M 24 36 "/>
<path style=" stroke:none;fill-rule:nonzero;fill:rgb(80%,80%,80%);fill-opacity:1;" d="M 28 40 L 96 40 L 96 44 L 28 44 Z M 28 40 "/>
<path style=" stroke:none;fill-rule:nonzero;fill:rgb(94.901961%,73.333333%,39.215686%);fill-opacity:1;" d="M 4 56 L 124 56 L 115.429688 112 L 12.570312 112 Z M 4 56 "/>
<path style=" stroke:none;fill-rule:nonzero;fill:rgb(80%,80%,80%);fill-opacity:1;" d="M 28 48 L 96 48 L 96 52 L 28 52 Z M 28 48 "/>
<path style=" stroke:none;fill-rule:evenodd;fill:rgb(52.156863%,60%,0%);fill-opacity:1;" d="M 116.058594 91.589844 C 116.246094 100.914062 111.328125 109.609375 103.191406 114.328125 C 95.066406 119.046875 84.996094 119.046875 76.859375 114.328125 C 68.722656 109.609375 63.808594 100.914062 64.003906 91.589844 C 63.808594 82.257812 68.722656 73.558594 76.859375 68.839844 C 84.996094 64.121094 95.066406 64.121094 103.191406 68.839844 C 111.328125 73.558594 116.246094 82.257812 116.058594 91.589844 Z M 116.058594 91.589844 "/>
<path style=" stroke:none;fill-rule:nonzero;fill:rgb(100%,100%,100%);fill-opacity:1;" d="M 104.265625 75.058594 C 103.714844 75.257812 103.246094 75.632812 102.933594 76.121094 L 88.746094 89.984375 L 79.890625 81.453125 C 79.535156 80.277344 78.421875 79.484375 77.183594 79.546875 C 75.953125 79.621094 74.933594 80.527344 74.703125 81.734375 C 74.484375 82.953125 75.128906 84.164062 76.265625 84.652344 L 86.933594 95.320312 C 87.953125 96.277344 89.535156 96.277344 90.558594 95.320312 L 106.558594 79.320312 C 107.183594 78.496094 107.265625 77.371094 106.777344 76.453125 C 106.285156 75.539062 105.296875 74.996094 104.265625 75.058594 Z M 104.265625 75.058594 "/>
</g>
</svg>
